!!!!SEGMENT: pl-kk--kk-i-474--006_studzinski-piotr--quarta-missa-agnus.krn
!!!cenid: 18xx:1389
!!!COM: Studziński, Piotr
!!!COM-rismid: pe50044409
!!!CDT: 1825/10/16-1869/04/20
!!!CNT: Polish
!!!OTL: Quarta Missa – Agnus
!!!PDT: 1856
!!!AGN: Sacred; Mass
!!!SMS-siglum: PL-Kk
!!!SMS-shelfmark: Kk.I.474
!!!SMS-shelfwork: 001-006 M
!!!SMS-variant: Alto: PL-Kk Kk.I.474: 20
!!!SMS-altvar: Alto: PL-Kk Kk.I.474: 16-17
!!!NIFC-rismid: 1001140244
!!!URL-scan: http://repozytorium.nifc.pl/skany/pl-kk-nut--i-474
!!!ONB-nifc: UWAGA: części Mszy: 1. Kyrie, 2. Gloria, 3. Credo, 4. Sanctus, 5. Benedictus, 6. Agnus, 7. Dona. Uwaga: Gloria zapisana osobno na ostatnich stronach
**kern	**text	**text	**kern	**text	**dynam	**kern	**text	**dynam	**kern	**text	**kern	**text	**dynam	**kern	**text	**dynam
*part5	*part5	*part5	*part5	*part5	*part5	*part4	*part4	*part4	*part3	*part3	*part2	*part2	*part2	*part1	*part1	*part1
*group	*group	*group	*group	*group	*group	*group1	*group1	*group1	*group1	*group1	*group1	*group1	*group1	*group1	*group1	*group1
*staff6	*staff6	*staff6	*staff5	*staff5	*	*staff4	*staff4	*	*staff3	*staff3	*staff2	*staff2	*	*staff1	*staff1	*
*I"Organo.	*	*	*	*	*	*I"Basſo Duo Imo et 2do	*	*	*I"Tenor	*	*I"Alto	*	*	*I"Soprano	*	*
*I'org	*	*	*	*	*	*I'B	*	*	*I'T	*	*I'A	*	*	*I'S	*	*
*clefF4	*	*	*clefG2	*	*	*clefF4	*	*	*clefC4	*	*clefG2	*	*	*clefG2	*	*
*k[b-e-a-]	*	*	*k[b-e-a-]	*	*	*k[b-e-a-]	*	*	*k[b-e-a-]	*	*k[b-e-a-]	*	*	*k[b-e-a-]	*	*
*M3/4	*	*	*M3/4	*	*	*M3/4	*	*	*M3/4	*	*M3/4	*	*	*M3/4	*	*
=1	=1	=1	=1	=1	=1	=1	=1	=1	=1	=1	=1	=1	=1	=1	=1	=1
*^	*	*	*	*	*	*^	*	*	*	*	*	*	*	*	*	*
*2\right	*2\right	*	*	*2\right	*	*	*2\right	*	*	*	*2\right	*	*2\right	*	*	*2\right	*	*
!LO:TX:a:t=P:problem:nazwa instrumentu, oznaczenia dynamiczne oraz tempa dopisane w źródle czerwonym atramentem	!	!	!	!LO:TX:i:a:t=Agnus	!	!	!	!	!	!	!	!	!LO:TX:i:a:t=andante	!	!	!	!	!
!	!	!	!	!LO:TX:a:t=P:problem:napis "Agnus" w źródle przed akoladą	!	!	!LO:TX:i:a:t=adagio.	!	!	!	!	!	!LO:TX:a:t=P:problem: źródło-skan 0020	!	!	!LO:TX:a:t=P:problem:oznaczenia dynamiczne, artykulacyjne oraz tempa dopisane w źródle czerwonym atramentem	!	!
!	!	!	!	!LO:TX:a:t=P:problem:nazwa instrumentu, oznaczenia dynamiczne oraz tempa dopisane w źródle czerwonym atramentem	!	!	!LO:TX:a:t=P:problem:oznaczenia dynamiczne oraz tempa dopisane w źródle czerwonym atramentem	!	!	!	!	!	!LO:TX:a:t=P:problem:oznaczenia dynamiczne i tempa oraz łuki dopisane w źródle czerwonym atramentem	!	!	!LO:TX:i:a:t=andante	!	!
!	!	!	!	!LO:TX:i:a:t=andante	!	!LO:DY:b:rj	!	!	!	!	!LO:TX:a:i:t=Agnus	!	!LO:TX:a:i:t=Agnus	!	!	!LO:TX:a:i:t=Agnus	!	!
!	!	!	!	!	!	!	!LO:TX:a:i:t=Agnus	!	!	!LO:DY:b:rj	!	!	!LO:TX:a:t=P:problem: napis "Agnus" w źródle przed kluczem	!	!LO:DY:b:rj	!LO:TX:a:t=P:problem: napis "Agnus" w źródle przed kluczem	!	!LO:DY:b:rj
2c/ 2e-	2C\ 2G	A-	.	2ee-/ 2g/	.	p	2G\ 2C\	2.ryy	A-	p	2c\ 2e-	A-	2g/	A-	p	2ee-\	A-	p
4c/ 4e-	4C\ 4G	-gnus	.	4ee-/ 4g/	.	.	4G\ 4C\	.	-gnus	.	4c\ 4e-	-gnus	4g/	-gnus	.	4ee-\	-gnus	.
=2	=2	=2	=2	=2	=2	=2	=2	=2	=2	=2	=2	=2	=2	=2	=2	=2	=2	=2
*	*	*	*	*^	*	*	*	*	*	*	*	*	*	*	*	*	*	*
*	*	*	*	*	*2\right	*	*	*	*	*	*	*	*	*	*	*	*	*	*
!	!	!	!	!	!	!	!	!	!LO:TX:b:t=P:problem:kauda z prawej strony	!	!	!	!	!	!	!	!	!	!
4Bn\ 4f\ 4G\	2ryy	De-	.	8.dd/L	4g\	.	.	4G/	4G\	de-	.	4Bn\ 4f	De-	4g/	De-	.	8.dd\L	De-	.
.	.	.	.	16bn/Jk	.	.	.	.	.	.	.	.	.	.	.	.	16bn\Jk	.	.
4e-\ 4C\ 4G\	.	-i	.	4cc/	4e-\	.	.	4G\ 4C\	4ryy	-i	.	4c\ 4e-	-i	4e-/	-i	.	4cc\	-i	.
8r	8ryy	.	.	8r	4ryy	.	.	8r	4ryy	.	.	8r	.	8r	.	.	8r	.	.
!	!LO:TX:b:t=P:problem:kauda z prawej strony	!	!	!	!	!	!	!	!	!	!	!	!	!	!	!	!	!	!
8E-/	8E-\	qui	.	8g/ 8c/	.	.	.	8E-\	.	qui	.	8c\	qui	8c/	qui	.	8g/	qui	.
*	*	*	*	*	*	*	*	*v	*v	*	*	*	*	*	*	*	*	*	*
=3	=3	=3	=3	=3	=3	=3	=3	=3	=3	=3	=3	=3	=3	=3	=3	=3	=3	=3
!	!LO:TX:b:t=P:problem:kauda z prawej strony	!	!	!	!	!	!	!	!	!	!	!	!	!	!	!	!	!
4E-/	4E-\	tol-	.	4g/ 4c/	2ryy	.	.	4E-\	tol-	.	4c\	tol-	4c/	tol-	.	4g/	tol-	.
!	!LO:TX:b:t=P:problem:kauda z prawej strony	!	!	!	!	!	!	!	!	!	!	!	!	!	!	!	!	!
8E-/	8E-\	-lis	.	8f#X/ 8c/	.	.	.	8E-\	-lis	.	8c\	-lis	8c/	-lis	.	8f#X/	-lis	.
!	!LO:TX:b:t=P:problem:kauda z prawej strony	!	!	!	!	!	!	!	!	!	!	!	!	!	!	!	!	!
8E-/	8E-\	pec-	.	8g/ 8c/	.	.	.	8E-\	pec-	.	8c\	pe[c]-	8c/	pec-	.	8g/	pec-	.
!	!	!	!	!	!LO:TX:b:t=P:problem:kauda z prawej strony	!	!	!	!	!	!	!	!	!	!	!	!	!
8c\ 8En\	4ryy	-ca-	.	8cc/	8g\	.	.	8En\	-ca-	.	8c\	-ca-	8g/	-ca-	.	8cc\	-ca-	.
!	!	!	!	!	!LO:TX:b:t=P:problem:kauda z prawej strony	!	!	!	!	!	!	!	!	!	!	!	!	!
!	!	!	!	!	!	!	!	!	!	!	!	!	!	!LO:SIC:s=-ta	!	!	!	!
8c\ 8E\	.	-ta	.	8g/	8g\	.	.	8E\	-ta	.	8c\	-ta	8g/	-tata	.	8g/	-ta	.
*v	*v	*	*	*	*	*	*	*	*	*	*	*	*	*	*	*	*	*
=4	=4	=4	=4	=4	=4	=4	=4	=4	=4	=4	=4	=4	=4	=4	=4	=4	=4
4c\ 4F\	mun-	.	8.b-/L	4f\	.	.	4F\	mun-	.	4c\	mun-	4g/	mun-	.	(>8.b-\L	mun-	.
.	.	.	16a-/Jk	.	.	.	.	.	.	.	.	.	.	.	16a-\Jk	.	.
4c\ 4C\	-di	.	4g/	4e-\	.	.	4C\	-di	.	4c\	-di	4g/	-di	.	4g/)	-di	.
4r	.	.	4r	4ryy	.	.	4r	.	.	4r	.	4r	.	.	4r	.	.
*	*	*	*v	*v	*	*	*	*	*	*	*	*	*	*	*	*	*
!LO:LB:g=original	!	!	!LO:LB:g=original	!	!	!LO:LB:g=original	!	!	!LO:LB:g=original	!	!LO:LB:g=original	!	!	!LO:LB:g=original	!	!
=5	=5	=5	=5	=5	=5	=5	=5	=5	=5	=5	=5	=5	=5	=5	=5	=5
2d\ 2G\	ag-	.	2bn/ 2f/	.	.	2G\	a-	.	2d\	a-	2g/	A-	.	2bn\	ag-	.
!	!	!	!	!	!	!LO:TX:b:t=P:problem:kauda z prawej strony	!	!	!	!	!	!	!	!	!	!
4d\ 4G\	-nus	.	4b/ 4g/	.	.	4G\	-gnus	.	4d\	-gnus	4g/	-gnus	.	4b\	-nus	.
=6	=6	=6	=6	=6	=6	=6	=6	=6	=6	=6	=6	=6	=6	=6	=6	=6
!	!	!	!	!	!	!LO:TX:b:t=P:problem:kauda z prawej strony w całym takcie	!	!	!	!	!	!	!	!	!	!
4Bn\ 4G\	de-	.	4dd\ 4g\	.	.	4G\	de-	.	4Bn\	De-	4g/	de-	.	4dd\	De-	.
4d\ 4G\	-i	.	4bn\ 4g\	.	.	4G\	-i	.	4d\	-i	4g/	-i	.	4bn\	i	.
8r	.	.	8r	.	.	8r	.	.	8r	.	8r	.	.	8r	.	.
8d\ 8G\	qui	.	8b/ 8g/	.	.	8G\	qui	.	8d\	qui	8g/	qui	.	8b\	qui	.
=7	=7	=7	=7	=7	=7	=7	=7	=7	=7	=7	=7	=7	=7	=7	=7	=7
*^	*	*	*	*	*	*	*	*	*	*	*	*	*	*	*	*
!	!	!	!	!	!	!LO:DY:b:rj	!LO:TX:b:t=P:problem:kauda z prawej strony w całym takcie	!	!	!	!	!	!	!	!	!	!
4d/	8G\L	tol-	.	4bn/ 4g/	.	p	8G\L	tol-	.	4d\	tol-	4g/	tol-	.	4bn\	tol-	.
.	8A-X\J	.	.	.	.	.	8A-X\J	.	.	.	.	.	.	.	.	.	.
8d\ 8G\	2ryy	-lis	.	8b/ 8g/	.	.	8G\	-lis	.	8d\	-lis	8g/	-lis	.	8b\	-lis	.
8d\ 8F\	.	pec-	.	8b/ 8g/	.	.	8F\	pe[c]-	.	8d\	pe[c]-	8g/	pe[c]-	.	8b\	pec-	.
8c\ 8E-X\	.	-ca-	.	8cc/ 8g/	.	.	8E-X\	-ca-	.	8c\	-ca-	8g/	-ca-	.	8cc\	-ca-	.
8c\ 8C\	.	-ta	.	8ee-/ 8g/	.	.	8C\	-ta	.	8c\	-ta	8g/	-ta	.	8ee-\	-ta	.
*v	*v	*	*	*	*	*	*	*	*	*	*	*	*	*	*	*	*
=8	=8	=8	=8	=8	=8	=8	=8	=8	=8	=8	=8	=8	=8	=8	=8	=8
*	*	*	*^	*	*	*	*	*	*	*	*	*	*	*	*	*
2d\ 2BBn\	mun-	.	2ff/	8g\L	.	.	2BBn/	mun-	.	2d\	mun-	(<8g/L	mun-	.	2ff^<\	mun-	.
.	.	.	.	8a-X\	.	<	.	.	.	.	.	8a-X/	.	.	.	.	.
.	.	.	.	8g\	.	.	.	.	.	.	.	8g/	.	.	.	.	.
.	.	.	.	8f\J	.	.	.	.	.	.	.	8f/J)	.	.	.	.	.
8c\ 8C\	-di	.	8ee-/	8e-\	.	.	8C/	-di	.	8c\	-di	8e-/	-di	.	8ee-\	-di	.
8c\ 8E-X\	qui	.	8cc/	8g\	.	.	8E-X/	qui	.	8c\	qui	8g/	qui	.	8cc\	qui	.
*	*	*	*v	*v	*	*	*	*	*	*	*	*	*	*	*	*	*
!	!	!	!	!	!	!LO:LB:g=original	!	!	!LO:LB:g=original	!	!	!	!	!	!	!
=9	=9	=9	=9	=9	=9	=9	=9	=9	=9	=9	=9	=9	=9	=9	=9	=9
*^	*	*	*	*	*	*	*	*	*	*	*	*	*	*	*	*
!LO:N:vis=2	!	!	!	!	!	!LO:DY:b:rj	!	!	!	!	!	!	!	!	!	!	!
4d/	8G\L	tol-	.	4bn/ 4g/	.	p	8G\L	tol-	.	4d\	tol-	4g/	tol-	.	4bn\	tol-	.
.	8A-X\J	.	.	.	.	.	8A-X\J	.	.	.	.	.	.	.	.	.	.
8d/	8G\	-lis	.	8b/ 8g/	.	.	8G\	-lis	.	8d\	-lis	8g/	-lis	.	8b\	-lis	.
8d\ 8F\	4.ryy	pe[c]-	.	8b/ 8g/	.	.	8F\	pe[c]-	.	8d\	pe[c]-	8g/	pe[c]-	.	8b\	pe[c]-	.
8c\ 8E-X\	.	-ca-	.	8cc/ 8g/	.	.	8E-\	-ca-	.	8c\	-ca-	8g/	-ca-	.	8cc\	-ca-	.
8c\ 8C\	.	-ta	.	8ee-/ 8g/	.	.	8C\	-ta	.	8c\	-ta	8g/	-ta	.	8ee-\	-ta	.
!LO:LB:g=original	!	!	!	!LO:LB:g=original	!	!	!	!	!	!	!	!LO:LB:g=original	!	!	!LO:LB:g=original	!	!
=10	=10	=10	=10	=10	=10	=10	=10	=10	=10	=10	=10	=10	=10	=10	=10	=10	=10
*	*	*	*	*^	*	*	*	*	*	*	*	*	*	*	*	*	*
!	!	!	!	!	!	!	!	!	!	!	!	!	!LO:TX:a:t=P:problem:przekreślony takt przed tym taktem	!	!	!LO:TX:a:t=P:problem:akcent znajduje się za nutą na pięciolinii	!	!
2d/	2BBn\	mun-	.	2ff/	8g\L	.	.	2BBn/	mun-	.	2d\	mun-	(<8g/L	mun-	.	2ff^<\	mun-	.
.	.	.	.	.	8a-X\	.	<	.	.	.	.	.	8a-X/	.	.	.	.	.
.	.	.	.	.	8g\	.	.	.	.	.	.	.	8g/	.	.	.	.	.
.	.	.	.	.	8f\J	.	.	.	.	.	.	.	8f/J)	.	.	.	.	.
4c/	8C\L	-di	.	8ee-/	8e-\	.	.	(>8C\L	-di	.	4c\	-di	8e-/	-di	.	8ee-\	-di	.
.	8E-X\J	.	.	8r	8ryy	.	.	8E-\J)	.	.	.	.	8r	.	.	8r	.	.
*v	*v	*	*	*	*	*	*	*	*	*	*	*	*	*	*	*	*	*
=11	=11	=11	=11	=11	=11	=11	=11	=11	=11	=11	=11	=11	=11	=11	=11	=11	=11
!	!	!	!	!	!	!LO:DY:b:rj	!	!	!LO:DY:b:rj	!	!	!	!	!	!	!	!
8.c\ 8.A-X\	mi-	.	4rcc	8.e-X\	.	p	8.A-X\	mi-	f	8.c\	mi-	8.e-/	mi-	.	4r	.	.
16c\ 16A-\	-se-	.	.	16e-\	.	.	16A-\	-se-	.	16c\	-se-	16e-/	-se-	.	.	.	.
4c\ 4A-\	-re-	.	4rcc	4e-\	.	.	4A-\	-re-	.	4c\	-re-	4e-/	-re-	.	4r	.	.
4c\ 4A-\	-re	.	8.cc/	4e-\	a-	.	4A-\	-re	.	4c\	-re	4e-/	-re	.	8.cc\	ag-	.
.	.	.	16dd/	.	-gnus	.	.	.	.	.	.	.	.	.	16dd\	-nus	.
*	*	*	*v	*v	*	*	*	*	*	*	*	*	*	*	*	*	*
=12	=12	=12	=12	=12	=12	=12	=12	=12	=12	=12	=12	=12	=12	=12	=12	=12
!	!	!	!	!	!	!	!	!	!	!	!	!	!	!LO:TX:a:t=P:problem:akcent znajduje się za nutą na pięciolinii	!	!LO:DY:b:rj
!	!	!	!	!	!	!	!	!	!	!	!	!	!	!LO:TX:a:t=P:problem:oznaczenie dynamiczne na pięciolinii przed nutą	!	!
2B-\ 2E-\	no-	.	2ee-\ 2g\	de-	.	2E-\	no-	.	2B-\	no-	2g/	no-	.	2ee-^<\	de-	f
4G\ 4E-\	-bis	.	4b-\ 4e-\	-i	.	4E-\	-bis	.	4G\	-bis	4e-/	-bis	.	4b-\	-i	.
=13	=13	=13	=13	=13	=13	=13	=13	=13	=13	=13	=13	=13	=13	=13	=13	=13
*	*	*	*^	*	*	*	*	*	*	*	*	*	*	*	*	*
!	!	!	!	!	!	!	!LO:TX:b:t=P:problem:kauda z prawej strony w całym takcie	!	!	!	!	!	!	!	!	!	!
8.A-X\ 8.F\	mi-	.	4r	8.c\	.	.	8.F\	mi-	.	8.A-X\	mi-	8.c/	mi-	.	4r	.	.
16A-\ 16F\	-se-	.	.	16c\	.	.	16F\	-se-	.	16A-\	-se-	16c/	-se-	.	.	.	.
4A-\ 4F\	-re-	.	4r	4c\	.	.	4F\	-re-	.	4A-\	-re-	4c/	-re-	.	4r	.	.
4c\ 4F\	-re	.	8.a-X/	4f\	a-	.	4F\	-re	.	4c\	-re	4f/	-re	.	8.a-X/	ag-	.
.	.	.	16b-/	.	-gnus	.	.	.	.	.	.	.	.	.	16b-/	-nus	.
*	*	*	*v	*v	*	*	*	*	*	*	*	*	*	*	*	*	*
!	!	!	!	!	!	!LO:LB:g=original	!	!	!LO:LB:g=original	!	!LO:LB:g=original	!	!	!	!	!
=14	=14	=14	=14	=14	=14	=14	=14	=14	=14	=14	=14	=14	=14	=14	=14	=14
!	!	!	!	!	!	!	!	!	!	!	!	!	!	!LO:TX:a:t=P:problem:akcent znajduje się za nutą na pięciolinii	!	!LO:DY:b:rj
!	!	!	!	!	!	!	!	!	!	!	!	!	!	!LO:TX:a:t=P:problem:oznaczenie dynamiczne na pięciolinii przed nutą	!	!
2G\ 2C\	no-	.	2cc/ 2e-/	de-	.	2C\	no-	.	2G/	no-	2e-/	no-	.	2cc^<\	de-	f
!	!	!	!	!	!	!LO:TX:b:t=P:problem:kauda z prawej strony	!	!	!	!	!	!	!	!	!	!
4E-\ 4C\	-bis	.	4g/ 4c/	-i	.	4C\	-bis	.	4E-/	-bis	4c/	-bis	.	4g/	-i	.
!LO:LB:g=original	!	!	!LO:LB:g=original	!	!	!	!	!	!	!	!	!	!	!	!	!
=15	=15	=15	=15	=15	=15	=15	=15	=15	=15	=15	=15	=15	=15	=15	=15	=15
*	*	*	*^	*	*	*	*	*	*	*	*	*	*	*	*	*
!	!	!	!	!	!	!	!LO:TX:b:t=P:problem:kauda z prawej strony w całym takcie	!	!LO:DY:b:rj	!	!	!	!	!	!	!	!
8.c\ 8.F#X\	mi-	.	4rcc	8.e-\	.	.	8.F#X\	mi-	p	8.c\	mi-	8.e-/	mi-	.	4r	.	.
16c\ 16F#\	-se-	.	.	16e-\	.	.	16F#\	-se-	.	16c\	-se-	16e-/	-se-	.	.	.	.
4c\ 4F#\	-re-	.	4rcc	4e-\	.	.	4F#\	-re-	.	4c\	-re-	4e-/	-re-	.	4r	.	.
4c\ 4F#\	-re	.	4cc/	4e-\	qui	.	4F#\	-re	.	4c\	-re	4e-/	-re	.	4cc\	qui	.
!	!	!	!	!	!	!	!	!	!	!	!	!	!	!	!LO:LB:g=original	!	!
=16	=16	=16	=16	=16	=16	=16	=16	=16	=16	=16	=16	=16	=16	=16	=16	=16	=16
*	*	*	*	*	*	*	*	*	*	*^	*	*	*	*	*	*	*
!	!	!	!	!	!	!	!	!	!	!	!LO:N:vis=2.	!	!	!	!	!	!	!
2c\ 2F#X\	no-	.	8cc/L	2e-\	tol-	.	2F#X\	no-	.	2c\	2c\	no-	2e-/	no-	.	(>8cc\L	tol-	.
.	.	.	8ee-X/J	.	.	.	.	.	.	.	.	.	.	.	.	8ee-X\J)	.	.
.	.	.	8dd/	.	-lis	.	.	.	.	.	.	.	.	.	.	8dd\	-lis	.
.	.	.	8cc/	.	pe[c]-	.	.	.	.	.	.	.	.	.	.	8cc\	pec-	.
!	!	!	!	!	!	!	!	!	!	!	!LO:TX:b:t=P:problem:kauda z prawej strony	!	!	!	!	!	!	!
4c\ 4F#\	-bis	.	8b-/	4e-\	-ca-	.	4F#\	-bis	.	4c/	4c\	-bis	4e-/	-bis	.	8b-\	-ca-	.
.	.	.	8a-X/	.	-ta	.	.	.	.	.	.	.	.	.	.	8a-X\	-ta	.
*	*	*	*	*	*	*	*	*	*	*v	*v	*	*	*	*	*	*	*
=17	=17	=17	=17	=17	=17	=17	=17	=17	=17	=17	=17	=17	=17	=17	=17	=17	=17
*^	*	*	*	*	*	*	*	*	*	*	*	*	*	*	*	*	*
4.Bn/	8G\	qui	.	4g/	4.d\	mun-	.	8G\	qui	.	4.Bn\	mi-	4.d/	qui	.	4g/	mun-	.
.	8A-X\	tol-	.	.	.	.	.	8A-X\	tol-	.	.	.	.	.	.	.	.	.
.	8G\	-lis	.	8g/	.	-di	.	8G\	-lis	.	.	.	.	.	.	8g/	-di	.
!	!	!	!	!	!LO:TX:b:t=P:problem:kauda wychodzi ze środka główki	!	!	!	!	!	!	!	!	!	!	!	!	!
8Bn\ 8F\	4.ryy	pe[c]-	.	8d/L	8d\	mi-	.	8F\	pec-	.	8B\	-se-	8d/	tol-	.	(<8d/L	mi-	.
!	!	!	!	!	!LO:TX:b:t=P:problem:kauda wychodzi ze środka główki	!	!	!	!	!	!	!	!	!	!	!	!	!
8c\ 8E-\	.	-ca-	.	8e-/J	8e-\	.	.	8E-\	-ca-	.	8c\	-re-	8e-/	-lis	.	8e-/J)	.	.
!	!	!	!	!	!LO:TX:b:t=P:problem:kauda z prawej strony	!	!	!LO:TX:a:t=d	!	!	!	!	!	!	!	!	!	!
8d\ 8D\	.	-ta	.	8f/	8f\	-se-	.	8D\	-ta	.	8d\	-re	8f/	pe[c]-	.	8f/	-se-	.
*	*	*	*	*v	*v	*	*	*	*	*	*	*	*	*	*	*	*	*
*v	*v	*	*	*	*	*	*	*	*	*	*	*	*	*	*	*	*
=18	=18	=18	=18	=18	=18	=18	=18	=18	=18	=18	=18	=18	=18	=18	=18	=18
4c\ 4C\	mun-	.	4g/ 4e-/	-re-	.	(>4C/	mun-	.	(>4c\	no-	4e-/	-ca-	.	4g/	-re-	.
4G\ 4BBn\	.	.	4f/ 4d/	.	.	4BBn/)	.	.	4G/)	.	4d/	-[[ta]]-	.	4f/	.	.
4G\ 4C\	-di	.	4e-/ 4c/	-re	.	4C/	-di	.	4G/	-bis	4c/	-ta	.	4e-/	-re	.
!	!	!	!	!	!	!LO:LB:g=original	!	!	!LO:LB:g=original	!	!LO:LB:g=original	!	!	!	!	!
=19	=19	=19	=19	=19	=19	=19	=19	=19	=19	=19	=19	=19	=19	=19	=19	=19
*	*	*	*^	*	*	*	*	*	*	*	*	*	*	*	*	*
*^	*	*	*	*	*	*	*	*	*	*	*	*	*	*	*	*	*
2Bn\	4GG\	mi-	.	8g/	2d\	qui	.	4GG/	mi-	.	2Bn\	mi-	2d/	mi-	.	8g/	qui	.
.	.	.	.	8a-X/	.	tol-	.	.	.	.	.	.	.	.	.	8a-X/	tol-	.
.	4G\	.	.	8g/	.	-lis	.	4G\	.	.	.	.	.	.	.	8g/	-lis	.
.	.	.	.	8ff/	.	pe[c]-	.	.	.	.	.	.	.	.	.	8ff\	pe[c]-	.
!LO:LB:g=original	!LO:LB:g=original	!	!	!LO:LB:g=original	!LO:LB:g=original	!	!	!	!	!	!	!	!	!	!	!	!	!
4Bn\ 4F\	4ryy	-se-	.	8ee-/	4g\	-cat-	.	4F\	-se-	.	4B\	-se-	4g/	-se-	.	8ee-\	-ca-	.
.	.	.	.	8dd/	.	-ta	.	.	.	.	.	.	.	.	.	8dd\	-ta	.
!	!	!	!	!	!	!	!	!	!	!	!	!	!	!	!	!LO:LB:g=original	!	!
*v	*v	*	*	*	*	*	*	*	*	*	*	*	*	*	*	*	*	*
=20	=20	=20	=20	=20	=20	=20	=20	=20	=20	=20	=20	=20	=20	=20	=20	=20	=20
!	!	!	!LO:TX:a:t=P:problem: przekreślone es, dopisany dźwięk g	!	!	!	!	!	!	!	!	!	!	!	!	!	!
4c\ 4E-\	-re-	.	(>4ee-/	4g\	mun-	.	4E-X\	-re-	.	(>4c\	-re-	4g/	-re-	.	(<4ee-\	mun-	.
4Bn\ 4D\	.	.	4g/)	4f\	.	.	4D\	.	.	4Bn\)	.	4f/	.	.	4g/)	.	.
4c\ 4C\	-re	.	4g/	4e-\	-di	.	4C\	-re	.	4c\	-re	4e-/	-re	.	4g/	-di	.
*	*	*	*v	*v	*	*	*	*	*	*	*	*	*	*	*	*	*
=21	=21	=21	=21	=21	=21	=21	=21	=21	=21	=21	=21	=21	=21	=21	=21	=21
!	!	!	!	!	!	!	!	!LO:DY:b:rj	!	!	!	!	!	!	!	!
4.e-\ 4.A-\	mi-	.	4.cc\ 4.a-\	.	.	4.A-X\	mi-	f	8.e-\	mi-	4.a-\	mi-	.	4.cc\	mi-	.
.	.	.	.	.	.	.	.	.	16e-\	-se-	.	.	.	.	.	.
.	.	.	.	.	.	.	.	.	4e-\	-re-	.	.	.	.	.	.
8e-\ 8A-\	-se-	.	8bn\ 8a-\	.	.	8A-\	-se-	.	.	.	8a-\	-se-	.	8bn\	-se-	.
8e-\ 8A-\	-re-	.	8cc\ 8a-\	.	.	8A-\	-re-	.	4e-\	-re	8a-\	-re-	.	8cc\	-re-	.
8e-\ 8A-\	-re	.	8dd\ 8a-\	.	.	8A-\	-re	.	.	.	8a-\	-re	.	8dd\	-re	.
=22	=22	=22	=22	=22	=22	=22	=22	=22	=22	=22	=22	=22	=22	=22	=22	=22
!	!	!	!	!	!	!	!	!	!	!	!	!	!	!	!	!LO:DY:b:rj
2B-\ 2E-\	no-	.	2ee-\ 2g\	.	.	2E-\	no-	.	2B-\	no-	2g/	no-	.	2ee-^<\	no-	f
8e-\ 8E-\	-bis	.	8b-/ 8g/	.	.	8E-\	-bis	.	8e-\	-bis	8g/	-bis	.	8b-\	-bis	.
8r	.	.	8r	.	.	8r	.	.	8r	.	8r	.	.	8r	.	.
!	!	!	!	!	!	!	!	!	!	!	!LO:PB:g=original	!	!	!	!	!
=23	=23	=23	=23	=23	=23	=23	=23	=23	=23	=23	=23	=23	=23	=23	=23	=23
4.c\ 4.F\	mi-	.	4.a-/ 4.f/	.	.	4.F\	mi-	.	8.c\	mi-	4.f/	mi-	.	4.a-/	mi-	.
.	.	.	.	.	.	.	.	.	16c\	-se-	.	.	.	.	.	.
.	.	.	.	.	.	.	.	.	4c\	-re-	.	.	.	.	.	.
8c\ 8F\	-se-	.	8g/ 8f/	.	.	8F\	-se-	.	.	.	8f/	-se-	.	8g/	-se-	.
8c\ 8F\	-re-	.	8a-/ 8f/	.	.	8F\	-re-	.	4c\	-re	8f/	-re-	.	8a-/	-re-	.
8c\ 8F\	-re	.	8b-/ 8f/	.	.	8F\	-re	.	.	.	8f/	-re	.	8b-/	-re	.
!	!	!	!	!	!	!LO:LB:g=original	!	!	!LO:LB:g=original	!	!	!	!	!	!	!
=24	=24	=24	=24	=24	=24	=24	=24	=24	=24	=24	=24	=24	=24	=24	=24	=24
!	!	!	!	!	!	!	!	!	!	!	!	!	!	!LO:TX:a:t=P:problem:akcent znajduje się za nutą na pięciolinii	!	!
2G\ 2C\	no-	.	2cc/ 2e-/	.	.	2C\	no-	.	2G/	no-	2e-/	no-	.	2cc^<\	no-	.
8c\ 8C\	-bis	.	8g/ 8e-/	.	.	8C\	-bis	.	8c\	-bis	8e-/	-bis	.	8g/	-bis	.
8r	.	.	8r	.	.	8r	.	.	8r	.	8r	.	.	8r	.	.
!LO:LB:g=original	!	!	!LO:LB:g=original	!	!	!	!	!	!	!	!	!	!	!LO:PB:g=original	!	!
=25	=25	=25	=25	=25	=25	=25	=25	=25	=25	=25	=25	=25	=25	=25	=25	=25
!	!	!	!	!	!	!	!	!LO:DY:b:rj	!	!	!	!	!	!	!	!
2G\ 2BBn\	[[mi-	Do-	4f/ 4d/	.	.	2BBn/	Do-	p	2G/	Do-	4d/	Do-	.	(>4f/	Do-	.
.	.	.	4dd/ 4f/	.	.	.	.	.	.	.	4f/	.	.	4dd\	.	.
4G\ 4BB\	-se-	-na	4dd/ 4f/	.	.	4BB/	-na	.	4G/	-na	4f/	-na	.	4dd\)	-na	.
=26	=26	=26	=26	=26	=26	=26	=26	=26	=26	=26	=26	=26	=26	=26	=26	=26
2G\ 2C\	-re-	no-	4dd/ 4f/	.	.	2C/	no-	.	2G/	no-	4f/	no-	.	(>4dd\	no-	.
.	.	.	4cc/ 4e-/	.	.	.	.	.	.	.	4e-/	.	.	4cc\)	.	.
4G\ 4C\	-re]]	-bis	4cc/ 4e-/	.	.	4C/	-bis	.	4G/	-bis	4e-/	-bis	.	4cc\	-bis	.
=27	=27	=27	=27	=27	=27	=27	=27	=27	=27	=27	=27	=27	=27	=27	=27	=27
*	*	*	*^	*	*	*	*	*	*	*	*	*	*	*	*	*
2.c\ 2.AA-\ 2.A-	pa-	.	2cc/ 2e-/	2.e-\	.	.	2.A-X\ 2.AA-X\	pa-	.	2.c\	pa-	2.e-/	pa-	.	(>2cc\	pa-	.
.	.	.	4f#X/	.	.	.	.	.	.	.	.	.	.	.	4f#X/)	.	.
*	*	*	*v	*v	*	*	*	*	*	*	*	*	*	*	*	*	*
=28	=28	=28	=28	=28	=28	=28	=28	=28	=28	=28	=28	=28	=28	=28	=28	=28
4Bn\ 4GG\ 4G	-cem	.	4g/ 4Bn/	.	.	4G\ 4GG\	-cem	.	4Bn\	-cem	4g/	-cem	.	4g/	-cem	.
4r	.	.	4r	.	.	4r	.	.	4r	.	4r	.	.	4r	.	.
4r	.	.	4r	.	.	4r	.	.	4r	.	4r	.	.	4r	.	.
!	!	!	!	!	!	!	!	!	!	!	!LO:LB:g=original	!	!	!	!	!
=29	=29	=29	=29	=29	=29	=29	=29	=29	=29	=29	=29	=29	=29	=29	=29	=29
!	!	!	!	!	!LO:DY:b:rj	!	!	!	!	!	!	!	!	!	!	!
2.c\ 2.GG\ 2.G	pa-	.	2.f#X/ 2.e-/	.	p	2.G\ 2.GG\	pa-	.	2.c\	pa-	2.e-/	pa-	.	2.f#X/	pa-	.
!	!	!	!	!	!	!LO:LB:g=original	!	!	!	!	!	!	!	!	!	!
=30	=30	=30	=30	=30	=30	=30	=30	=30	=30	=30	=30	=30	=30	=30	=30	=30
4Bn\ 4GG\ 4G	-cem	.	4g/ 4d/	.	.	4G\ 4GG\	-cem	.	4Bn\	-cem	4d/	-cem	.	4g/	-cem	.
4r	.	.	4r	.	.	4r	.	.	4r	.	4r	.	.	4r	.	.
4r	.	.	4r	.	.	4r	.	.	4r	.	4r	.	.	4r	.	.
!	!	!	!	!	!	!	!	!	!LO:LB:g=original	!	!	!	!	!	!	!
=31	=31	=31	=31	=31	=31	=31	=31	=31	=31	=31	=31	=31	=31	=31	=31	=31
!	!	!	!	!	!LO:DY:b:rj	!	!	!	!	!	!	!	!	!	!	!
2.G\ 2.GG\ 2.E-	pa-	.	2.c/	.	pp	2.E-\ 2.GG\	pa-	.	2.G/	pa-	2.c/	pa-	.	2.c/	pa-	.
=32	=32	=32	=32	=32	=32	=32	=32	=32	=32	=32	=32	=32	=32	=32	=32	=32
4G\ 4GG\ 4D	-cem	.	4Bn/	.	.	4D\ 4GG\	-cem	.	4G/	-cem	4Bn/	-cem	.	4Bn/	-cem	.
4r	.	.	4r	.	.	4r	.	.	4r	.	4r	.	.	4r	.	.
4r	.	.	4r	.	.	4r	.	.	4r	.	4r	.	.	4r	.	.
==	==	==	==	==	==	==	==	==	==	==	==	==	==	==	==	==
*-	*-	*-	*-	*-	*-	*-	*-	*-	*-	*-	*-	*-	*-	*-	*-	*-
!!!system-decoration: [g1]{s5,s6}
!!!RDF**kern: > = above
!!!RDF**kern: < = below
!!!RDF**dynam: < = "cres"
!!!EED: Mateusz Mrugas
!!!EST: 2021-01-15
!!!ENC: Berenika Jozajtis
!!!END: 2021-01-08
